static/dist/images/icons/align-horizontal-middle.svg

<svg xmlns="http://www.w3.org/2000/svg" viewBox="0 0 20 20"><path d="M8 10L5 7v2H1v2h4v2l3-3zm7 3v-2h4V9h-4V7l-3 3 3 3zm-5 5c.553 0 1-.049 1-.6V2.6c0-.553-.447-.6-1-.6-.552 0-1 .047-1 .6v14.8c0 .551.448.6 1 .6z"/></svg>

<?xml version="1.0" encoding="utf-8"?>
<!-- Generator: Adobe Illustrator 18.1.0, SVG Export Plug-In . SVG Version: 6.00 Build 0)  -->
<!DOCTYPE svg PUBLIC "-//W3C//DTD SVG 1.1//EN" "http://www.w3.org/Graphics/SVG/1.1/DTD/svg11.dtd">
<svg version="1.1" id="Horizontal_align_middle" xmlns="http://www.w3.org/2000/svg" xmlns:xlink="http://www.w3.org/1999/xlink"
	 x="0px" y="0px" viewBox="0 0 20 20" enable-background="new 0 0 20 20" xml:space="preserve">
<path d="M8,10L5,7v2H1v2h4v2L8,10z M15,13v-2h4V9h-4V7l-3,3L15,13z M10,18c0.553,0,1-0.049,1-0.6V2.6C11,2.047,10.553,2,10,2
	C9.448,2,9,2.047,9,2.6V17.4C9,17.951,9.448,18,10,18z"/>
</svg>
